polaris-icons/icons/DomainRedirectIcon.svg

<svg xmlns="http://www.w3.org/2000/svg" viewBox="0 0 20 20"><path d="M3.25 3C2.83579 3 2.5 3.33579 2.5 3.75V12.75C2.5 13.1642 2.83579 13.5 3.25 13.5C3.66421 13.5 4 13.1642 4 12.75V4.5H13.75C14.1642 4.5 14.5 4.16421 14.5 3.75C14.5 3.33579 14.1642 3 13.75 3H3.25Z"/>
<path fill-rule="evenodd" d="M5 6.25C5 5.83579 5.33579 5.5 5.75 5.5H16.25C16.6642 5.5 17 5.83579 17 6.25V10.25C17 10.6642 16.6642 11 16.25 11C15.8358 11 15.5 10.6642 15.5 10.25V9.5H6.5V14.5H9.25C9.66421 14.5 10 14.8358 10 15.25C10 15.6642 9.66421 16 9.25 16H5.75C5.33579 16 5 15.6642 5 15.25V6.25ZM15.5 7V8H6.5V7H15.5Z"/>
<path d="M12 15.9017C11.5858 15.9017 11.25 15.5659 11.25 15.1517C11.25 14.7375 11.5858 14.4017 12 14.4017H15.2426L14.6516 13.8107C14.3587 13.5178 14.3587 13.0429 14.6516 12.75C14.9445 12.4571 15.4194 12.4571 15.7123 12.75L17.5836 14.6213C17.8765 14.9142 17.8765 15.3891 17.5836 15.682L15.7123 17.5533C15.4194 17.8462 14.9445 17.8462 14.6516 17.5533C14.3587 17.2604 14.3587 16.7856 14.6516 16.4927L15.2426 15.9017H12Z"/>
</svg>

<svg xmlns="http://www.w3.org/2000/svg" viewBox="0 0 20 20"><path d="M3.25 3c-.414 0-.75.336-.75.75v9c0 .414.336.75.75.75s.75-.336.75-.75v-8.25h9.75c.414 0 .75-.336.75-.75s-.336-.75-.75-.75h-10.5Z"/><path fill-rule="evenodd" d="M5 6.25c0-.414.336-.75.75-.75h10.5c.414 0 .75.336.75.75v4c0 .414-.336.75-.75.75s-.75-.336-.75-.75v-.75h-9v5h2.75c.414 0 .75.336.75.75s-.336.75-.75.75h-3.5c-.414 0-.75-.336-.75-.75v-9Zm10.5.75v1h-9v-1h9Z"/><path d="M12 15.902c-.414 0-.75-.336-.75-.75s.336-.75.75-.75h3.243l-.591-.591c-.293-.293-.293-.768 0-1.061.293-.293.767-.293 1.06 0l1.872 1.871c.293.293.293.768 0 1.061l-1.872 1.871c-.293.293-.768.293-1.06 0-.293-.293-.293-.767 0-1.06l.59-.591h-3.242Z"/></svg>
